img/plus2.svg

<svg width="25" height="24" viewBox="0 0 25 24" fill="none" xmlns="http://www.w3.org/2000/svg">
    <path d="M12.5 8V16M8.5 12H16.5M22.5 12C22.5 17.5228 18.0228 22 12.5 22C6.97715 22 2.5 17.5228 2.5 12C2.5 6.47715 6.97715 2 12.5 2C18.0228 2 22.5 6.47715 22.5 12Z" stroke="#2563EB" stroke-width="2" stroke-linecap="round" stroke-linejoin="round"/>
</svg>

<svg width="25" height="24" fill="none" xmlns="http://www.w3.org/2000/svg"><path d="M12.5 8v8m-4-4h8m6 0c0 5.523-4.477 10-10 10s-10-4.477-10-10 4.477-10 10-10 10 4.477 10 10z" stroke="#2563EB" stroke-width="2" stroke-linecap="round" stroke-linejoin="round"/></svg>
